packages/tokens/icons/videoPlaylistApproved/size24Px.svg

<svg viewBox="0 0 24 24" fill="none" xmlns="http://www.w3.org/2000/svg" width="1em" height="1em"><path d="M2.5 19.5H11.5" stroke="currentColor" stroke-linecap="round"/><path d="M2.5 14.5H11.5" stroke="currentColor" stroke-linecap="round"/><path d="M2.5 9.5L21.5 9.5" stroke="currentColor" stroke-linecap="round"/><path d="M2.5 4.5L21.5 4.5" stroke="currentColor" stroke-linecap="round"/><path d="M21.1837 15.5629C21.5266 15.7534 21.5266 16.2466 21.1837 16.4371L15.2428 19.7376C14.9096 19.9227 14.5 19.6817 14.5 19.3005L14.5 12.6995C14.5 12.3183 14.9096 12.0773 15.2428 12.2624L21.1837 15.5629Z" stroke="currentColor"/></svg>

<svg xmlns="http://www.w3.org/2000/svg" fill="none" viewBox="0 0 24 24" width="1em" height="1em"><path stroke="currentColor" stroke-linecap="round" d="M2.5 19.5h9m-9-5h9m-9-5h19m-19-5h19"/><path stroke="currentColor" d="M21.184 15.563a.5.5 0 0 1 0 .874l-5.941 3.3a.5.5 0 0 1-.743-.436V12.7a.5.5 0 0 1 .743-.438l5.94 3.3Z"/></svg>
